/* XPM */
static char *_a3852d9fb624fae84e36f69198decd3qluFgAgWGPoG466E[] = {
/* columns rows colors chars-per-pixel */
"64 64 152 2 ",
"   c #010101",
".  c #0B0300",
"X  c #050B04",
"o  c #0B0801",
"O  c #020109",
"+  c #08040A",
"@  c #030908",
"#  c #0D080C",
"$  c #130400",
"%  c #180300",
"&  c #130900",
"*  c #1A0A00",
"=  c #130A0B",
"-  c #210900",
";  c #7F6500",
":  c #7E670A",
">  c #7C690B",
",  c #74631E",
"<  c #7A661F",
"1  c #7B691D",
"2  c #7A6923",
"3  c #7D7D7D",
"4  c #846700",
"5  c #826A00",
"6  c #886D00",
"7  c #816A0C",
"8  c #F4CC02",
"9  c #FACE05",
"0  c #F5CE0A",
"q  c #FBCF0B",
"w  c #F6D105",
"e  c #FBD104",
"r  c #F6D10C",
"t  c #FBD10A",
"y  c #FED90E",
"u  c #EECC16",
"i  c #EECC1C",
"p  c #F2CF15",
"a  c #F3CD1D",
"s  c #EFD117",
"d  c #EFD01D",
"f  c #F6D410",
"g  c #FFD817",
"h  c #F2D11C",
"j  c #F9D31B",
"k  c #EFCF23",
"l  c #E6CA2B",
"z  c #EDCF2E",
"x  c #F3CE24",
"c  c #F8CE22",
"v  c #F2CE29",
"b  c #EED125",
"n  c #EED12C",
"m  c #F4D024",
"M  c #F5D125",
"N  c #F7D325",
"B  c #F2D123",
"V  c #FAD127",
"C  c #F6D926",
"Z  c #F2D428",
"A  c #F7D22C",
"S  c #F5D22E",
"D  c #F2D22A",
"F  c #FAD628",
"G  c #EACE33",
"H  c #E7CB3C",
"J  c #EBCD3B",
"K  c #ECCD3F",
"L  c #EDCE3B",
"P  c #EED231",
"I  c #EED03A",
"U  c #F7D633",
"Y  c #F0D13B",
"T  c #F3D33B",
"R  c #DBC558",
"E  c #DECA5C",
"W  c #E5CF46",
"Q  c #E0C844",
"!  c #ECCD41",
"~  c #EECF40",
"^  c #E0C84A",
"/  c #E5CF48",
"(  c #E4CB4C",
")  c #E4CD4B",
"_  c #EACD4C",
"`  c #EBD04F",
"'  c #F1D04B",
"]  c #E3CB51",
"[  c #E3CA53",
"{  c #E7CE50",
"}  c #E5CD53",
"|  c #E6CC51",
" . c #E4CC53",
".. c #E9CB53",
"X. c #E9CD50",
"o. c #E9CA55",
"O. c #E8CB56",
"+. c #E8CD54",
"@. c #E5CB5A",
"#. c #E5CF5F",
"$. c #E9CB59",
"%. c #E7D157",
"&. c #EAD152",
"*. c #EBD254",
"=. c #EAD456",
"-. c #E5D659",
";. c #E7D45B",
":. c #E7D25D",
">. c #E6D15E",
",. c #E7D25F",
"<. c #E6D35B",
"1. c #E8D25B",
"2. c #E9D35B",
"3. c #E8D459",
"4. c #E8D15D",
"5. c #E8D15F",
"6. c #E9D25E",
"7. c #EAD05F",
"8. c #E9D25A",
"9. c #F1D45F",
"0. c #F1D55D",
"q. c #F0D959",
"w. c #DEC662",
"e. c #DFC966",
"r. c #DDC970",
"t. c #E4CD63",
"y. c #E4CD66",
"u. c #E8CE60",
"i. c #E4CE68",
"p. c #E7CE6A",
"a. c #E4D060",
"s. c #E7D161",
"d. c #E5D067",
"f. c #E5D262",
"g. c #E8D161",
"h. c #EAD361",
"j. c #EAD061",
"k. c #EAD163",
"l. c #E7D068",
"z. c #E2CF70",
"x. c #E9CF70",
"c. c #E2CE78",
"v. c #E8D174",
"b. c #E4D079",
"n. c #858585",
"m. c #DCC984",
"M. c #DFCD84",
"N. c #E6D492",
"B. c #E5D991",
"V. c #E4D499",
"C. c #E8D698",
"Z. c #E9D799",
/* pixels */
"                                                                                                                                ",
"                                                                                                                                ",
"                                                                                                                                ",
"                                                                                                                                ",
"                                                                                                                                ",
"                                                          O O O O O O                                                           ",
"                                                            O O O O                                                             ",
"                                                                                                                                ",
"                                  O O +                                                 + O O                                   ",
"                                  O     +   .   O O                         O O       .     O                                   ",
"                                                  O                         O   +                                               ",
"                                    X       X     O O                     O O     X       X                                     ",
"                                @ @                                                         @ @                                 ",
"                                          .   . . . . . . . . . . . . . . . . . o   o                                           ",
"                                . . . . . . $ . $ $ $ $ $ . . . . . . $ $ $ $ . . . . . . . . .                                 ",
"                                  . . V.c.i.s.:.1.1.:.7.7.g.g.s.s.s.7.7.7.:.7.7.7.#.d.b.Z.. .                                   ",
"                                  . . v.K v D x N x D N a c x x m B h h x v x x x V x Y t.$                                     ",
"                                    $ g.x t t t 9 y t 8 e y t t t e e e t q t e t 8 t a *.%   @                                 ",
"                                    . 1.m t t t e e 0 f y 8 8 t t t t t t t w e t y q S 0.$ .                                   ",
"                                    $ 3.B t t q e t N Z d i C B B x x x x B h h u x S ~ p.$ .                                   ",
"                                    . 3.B t q q t j J ( &.^ } ] } +...O.O.} / W q.[ @.e.m.. .                                   ",
"                                    . -.B e q q y a 6 * % % * % % % % % % % & $ $ & * $ $ .   O                                 ",
"                                O . . -.h e e 9 9 x : $ & . . . . . . . . . .   .   .   .     O                                 ",
"                                  . . -.h e e e e z 1 .               O                                                         ",
"                                  . . f.D t e e e n ,               O                       .                                   ",
"                                  . . s.x t e e t z 2 .     @                                                                   ",
"                                  . $ g.x t e e r G < .                           +     @   +                                   ",
"                                  . $ g.x t e e w U 7 $ $ $ . . . . .     . . . .         O @                                   ",
"                                    . l.v t e e e u 4 - % % $ * % % $ $ $ $ $ $ % $ .         @                                 ",
"                                    . l.x t e e 8 g D H ' _ ( ( _ _ )  . . .$.O.+.R M.. o                                       ",
"                                    . g.x t t e t q p h a i D m a a a B b x x x p T t.% . .   +                                 ",
"                                    $ g.x q t t 9 t r t t t r w e 9 t r r r q t e h 0.% . . O                                   ",
"                                    . g.x q t t q t t t 9 t r w 9 9 t r r r t t e B 8.% .   O O                                 ",
"                                    $ j.x q t t 9 0 p B a i b D a x D D n n v x B G w.% . =                                     ",
"                                  . $ j.x 9 e e 8 j T ` 8.g.l.@.+.+.1.:.>.s.u.#.%.E B..                                         ",
"                                  . $ j.x e e w w k ; % % $ $ & $ $ $ . . $ $ $ $ & .                                           ",
"                                  . $ l.v t e e t n 7 $ . . . . .           . . . .                                             ",
"                                  . . d.v t e e w P 1 .                           +   O     +                                   ",
"                                    . f.n r e e t l 2 &     .                         .                                         ",
"                                O   . f.b r e e w P ,                                       O                                   ",
"                                O . $ -.h e e e t n 1 .                         +                                               ",
"                                O . $ =.h e e e 8 D > . & .     . . . . . . . . . . .   .   . O                                 ",
"                                O . . =.h e t q y u 5 * % $ & * % % % % % % % % % * % % & .                                     ",
"                                    . -.d w t q 9 j L Q / ) &.^ } ..$.$.$.} / / =.} ] i.M.. o                                   ",
"                                    . :.b r t q t 0 B Z B u N N x x x x x x d s i i S ~ l.$ .                                   ",
"                                    . s.k r r t 9 t r r t 9 8 r t t t t t r w w y t 0 D 0.$ .                                   ",
"                                  . $ g.x q t t 9 t r 8 t t 9 t t e e e t r r w e 8 t x +.$   +                                 ",
"                                  . $ x.K x D B h i B B a x x x a h h h x D b B x F i I i.$ o                                   ",
"                                . . . Z.r.d.:.1.1.1.1.:.1.1.:.1.1.1.1.1.:.:.:.1.3.1.s.z.N.. .                                   ",
"                                . . . . . . & . $ $ $ $ $ . . . . . . $ $ $ $ . . . . . . . . .                                 ",
"                                              o . . . . .   . . . . . . . . . . &   .       .                                   ",
"                                @     X                                                     @ @                                 ",
"                                    X       .   O O O                     O O     .       X                                     ",
"                                X             +   O                             +             X                                 ",
"                                  O     #       O O O                         O   O   +                                         ",
"                                O + O O                                           + O   O O O                                   ",
"                                                                O                                                               ",
"                                                            O O O O                                                   .     .   ",
"                                                              O O O                                                     .       ",
"                                                                                                                  .     n.      ",
"                                                                                                                .   . n.3 3     ",
"                                                                                                                        n.    @ ",
"                                                                                                                .       .       ",
"                                                                        O O                                         @       .   "
};
