/* XPM */
static char *_7f82797b33244699e891ffc35ff9915fHrAT8Kz6BCQ1jkd[] = {
/* columns rows colors chars-per-pixel */
"64 64 150 2 ",
"   c #000001",
".  c #090502",
"X  c #040902",
"o  c #090803",
"O  c #01020B",
"+  c #09030A",
"@  c #020A0C",
"#  c gray3",
"$  c #000212",
"%  c #00031B",
"&  c #01091C",
"*  c #000324",
"=  c #00042A",
"-  c #00082D",
";  c #000637",
":  c #000834",
">  c #00063A",
",  c #000B3B",
"<  c #000442",
"1  c #000845",
"2  c #001241",
"3  c #000550",
"4  c #012756",
"5  c #0F2C56",
"6  c #0F355A",
"7  c #324877",
"8  c #4B5C7E",
"9  c #7C7C7C",
"0  c #0D4991",
"q  c #385E8F",
"w  c #2F5D91",
"e  c #2D5C9E",
"r  c #345B96",
"t  c #3C5D94",
"y  c #355E9B",
"u  c #3A5E9B",
"i  c #3B618D",
"p  c #356195",
"a  c #3B6195",
"s  c #35629B",
"d  c #3A619B",
"f  c #1F5FB6",
"g  c #1D5DBD",
"h  c #2E5DA5",
"j  c #255EAF",
"k  c #2C5DAC",
"l  c #355EA3",
"z  c #395EA2",
"x  c #335FAB",
"c  c #225EB4",
"v  c #2D5FB4",
"b  c #235EBB",
"n  c #2B5FBB",
"m  c #1D64B4",
"M  c #1D63BE",
"N  c #1B69BD",
"B  c #2760A7",
"V  c #2E64A5",
"C  c #2564AB",
"Z  c #2D63AC",
"A  c #3462A3",
"S  c #3B63A3",
"D  c #3265AC",
"F  c #3865A9",
"G  c #2564B5",
"H  c #2E62B1",
"J  c #2964B2",
"K  c #2B61B7",
"L  c #2963B7",
"P  c #2A62B7",
"I  c #2D61B7",
"U  c #2D64B7",
"Y  c #2B61B4",
"T  c #2363BA",
"R  c #2265BE",
"E  c #2066BE",
"W  c #2167BF",
"Q  c #2764BF",
"!  c #2463BC",
"~  c #2962B9",
"^  c #2A62B9",
"/  c #2A61BB",
"(  c #2D60B9",
")  c #2B60BC",
"_  c #2C63BE",
"`  c #2A61BB",
"'  c #3465B2",
"]  c #3869B5",
"[  c #3062BB",
"{  c #3366B9",
"}  c #3266B9",
"|  c #3268BC",
" . c #405687",
".. c #4C5F80",
"X. c #485A82",
"o. c #415D8C",
"O. c #495E8B",
"+. c #4A5F8E",
"@. c #435E93",
"#. c #475E90",
"$. c #435C94",
"%. c #445D96",
"&. c #425D93",
"*. c #485F95",
"=. c #415E98",
"-. c #41608E",
";. c #456191",
":. c #1B5CC4",
">. c #1F5FCB",
",. c #215EC3",
"<. c #245FCA",
"1. c #1761C4",
"2. c #1D66C2",
"3. c #1D67C0",
"4. c #1F65C5",
"5. c #1C67C4",
"6. c #1C66C7",
"7. c #1D65C3",
"8. c #1B66CB",
"9. c #1D65C9",
"0. c #1C65CB",
"q. c #1F64CB",
"w. c #1D64CC",
"e. c #1C65CC",
"r. c #1E65CA",
"t. c #1E68CB",
"y. c #2163C1",
"u. c #2263C1",
"i. c #2065C0",
"p. c #2764C1",
"a. c #2363C5",
"s. c #2363C7",
"d. c #2661C5",
"f. c #2463C5",
"g. c #2064C5",
"h. c #2064C7",
"j. c #2463C3",
"k. c #2865C2",
"l. c #2862C3",
"z. c #276AC3",
"x. c #266AC5",
"c. c #2362C9",
"v. c #2263C9",
"b. c #2063CB",
"n. c #2362CB",
"m. c #2063CC",
"M. c #2362C9",
"N. c #236CCA",
"B. c #246AC9",
"V. c #828282",
/* pixels */
"                                                                O O                                                             ",
"                                                                                                                                ",
"                                                                                                                                ",
"                                                                                                                                ",
"                                                                                                                                ",
"                                                                                                                                ",
"                                                                                                                                ",
"                                                                          O O O                                                 ",
"                                      O   +           O           O       O O .     .                                           ",
"                                              +                 O     O O       .             O                                 ",
"                                  +                           O     #         .             o                                   ",
"                                          X       X   X           +                 X                                           ",
"                                          O                                   O O O O O                                         ",
"                                    O O O $ $ O @   @                       O O $ % $ $ O O                                     ",
"                                    O & % * = * % % $ O                   O O $ * - * * & O                                     ",
"                                  O $ 8 ;.$.%.%.*.O.* % O           .   +   $ 8 #.=.t ;...$ O                                   ",
"                                  O * -.A Z H H v l = % $                 O % #.x ( K Z a * O                                   ",
"                                  $ * a J i.E E p.{ a * $ X               O * u _ b.g.L s * $                                   ",
"                                  O * d K 6.2.E b v h , $                 $ = d _ b.g.L s * O                                   ",
"                                  O * d ~ q.6.2.k._ U r %                 $ = d ~ b.b.~ s * O                                   ",
"                                  O % a ~ q.8.6.y.p.T D 7 %             O $ = s ~ a.a.K d * O                                   ",
"                                  O % a ~ b.w.q.g.y.z.j S = O           O $ = s ~ a.d.K d * O                                   ",
"                                  O * d K b.m.w.1.N.E c [ z % X         O $ = s K d.d.I u * O                                   ",
"                                  O * d ~ c.b.h.B.7.i.k.,.I - O           $ = s K j.d.I u * O                                   ",
"                                  O * d ( d.j.i.i.x.p.g w.Q s * O         $ = s J j.l.I u = O                                   ",
"                                  O * d ( d.Q T c ~ _ s.q.M B 4 %         O = d J j.j.v u = O                                   ",
"                                  O * d ( d.i.L ] 3 | T 7.N.T e = $     . O * d J i.j.v u = O                                   ",
"                                  O * d K a.i.L l < l ' g 2.M Z d * O .   O - S K i.j.I u = O                                   ",
"                                  O * d K i.6.T u ; ; y | j.2.T A > $     O = r ~ g.j.I u = O                                   ",
"                                  O * d J 2.6.L d = * 5 D b x.T v S * O # $ = S ~ g.i.K u * O                                   ",
"                                  O * d L 2.N G d = % * s J p.y.j.' = $   O = y Q 6.i.J u = O                                   ",
"                                  O = d K 2.N G d = $ $ = V ~ a.d.v a * O O = l ` g.s.K u * O                                   ",
"                                  O = u J M N G s = O O % a I ,.i.T K r $ O = z n b.c.K p * O                                   ",
"                                  O = u J i.2.L A * O   O * x _ M N.,.' * $ : z n b.<.v p * O                                   ",
"                                  O * u J y.7.~ y = O     % r k Q g d.k i * ; u ~ b.c.I p * O                                   ",
"                                  O * u I y.a.~ S = $     $ = S J s.l.( A , > A ~ b.d.I a * $                                   ",
"                                  O * u v a.a.~ y = O o     % ; Z ` g j.L Z 1 D T a.j.I t * $                                   ",
"                                  X * u v ,.a.~ z = O       O * r { j.n.y.f 0 C T y.j.H t * $                                   ",
"                                  X * u v ,.y.K s = $     .   $ : e _ :.b.g.z.m T R l.H u * $                                   ",
"                                  O * u v j.y.K s = $   . .   O % t H s.<.b.7.2.E ` l.v y * O                                   ",
"                                  O * u v j.R J s = $           $ * y v ,.>.t.5.i.j.d.I d * O                                   ",
"                                  O * u v j.R J s = $             $ 2 l n n.9.7.y.d.d.I y * O                                   ",
"                                  O * u H R R J p = $ O             % @.v ,.y.s.a.a.b.~ u * O                                   ",
"                                  O * u J R E J s = $ O             $ = F c _ j.a.b.b.~ u * O                                   ",
"                                  O * p J y.y.K s = $                 % q D I _ y.a.b.~ u * O                                   ",
"                                  O * p J 2.a.~ y = $             + O $ * w H b y.a.b.~ u * O                                   ",
"                                  O * p G 6.b.~ u = O               + O $ 6 k j.R R a.~ y * O                                   ",
"                                  O % i V K ~ x t * O                 O O % S k Z H K k t * O                                   ",
"                                    $ 8 o.t $.#.8 % O +   .         O   O $ =  .@.$.t &.X.% O                                   ",
"                                    O % * * = * % O O                     O $ % * - * * % $                                     ",
"                                    O O $ $ % $ O @                         X O $ % $ $ O O                                     ",
"                                .     O O O O O       .               .         X X O X       .                                 ",
"                                          X           o                                                                         ",
"                                                o         O         O         o                                                 ",
"                                              .       O O     O       O + O     .                                               ",
"                                          X       O O       O           O O +       .                                           ",
"                                                                                                                                ",
"                                                                                                                      +         ",
"                                                                                                                        +       ",
"                                                                                                                  #     V.      ",
"                                                                                                                    + V.9 V.    ",
"                                                                                                                        V.+     ",
"                                        O                   O O O O                                             +               ",
"                                        O O               O + + O O                                                         +   "
};
