/* XPM */
static char *_4e478dc9a3141a8a963f40780aa50db0HDOEGtui4XMmxrJ[] = {
/* columns rows colors chars-per-pixel */
"64 64 169 2 ",
"   c #010101",
".  c #0B0101",
"X  c #0A0B02",
"o  c #040209",
"O  c #090109",
"+  c #03090A",
"@  c #0B0B0B",
"#  c #140000",
"$  c #1C0000",
"%  c #030710",
"&  c #240000",
"*  c #2C0000",
"=  c #330000",
"-  c #3B0000",
";  c #410000",
":  c #4B0101",
">  c #560201",
",  c #630200",
"<  c #6F0809",
"1  c #700704",
"2  c #740C0D",
"3  c #7F1D1A",
"4  c #672517",
"5  c #6A2223",
"6  c #752621",
"7  c #7C7C7C",
"8  c #861A18",
"9  c #921C1A",
"0  c #972622",
"q  c #863834",
"w  c #8B3B3A",
"e  c #A63A37",
"r  c #AE3B36",
"t  c #AE3E3C",
"y  c #BF3B37",
"u  c #B63A3F",
"i  c #BB393E",
"p  c #D7241D",
"a  c #DA251F",
"s  c #DA2B1E",
"d  c #E12317",
"f  c #E0231F",
"g  c #E2291F",
"h  c #D92727",
"j  c #D72E27",
"k  c #DB2C24",
"l  c #D52F2E",
"z  c #DC2E2B",
"x  c #C5322B",
"c  c #CD342E",
"v  c #C4382F",
"b  c #CF382F",
"n  c #D53127",
"m  c #D4322C",
"M  c #DD332C",
"N  c #D73A2E",
"B  c #DB382F",
"V  c #D52F33",
"C  c #DD2D34",
"Z  c #C53534",
"A  c #CC3534",
"S  c #C43B34",
"D  c #CB3C34",
"F  c #CC363A",
"G  c #C33D3A",
"H  c #CB3B3B",
"J  c #D33533",
"K  c #DA3333",
"L  c #D23A35",
"P  c #D93934",
"I  c #D5353C",
"U  c #DB343A",
"Y  c #D33B39",
"T  c #D83D39",
"R  c #E42D25",
"E  c #E92D24",
"W  c #E22D29",
"Q  c #E12F2F",
"!  c #E42C2B",
"~  c #E82F2D",
"^  c #EA2D2C",
"/  c #E53027",
"(  c #E43226",
")  c #E83026",
"_  c #E3302B",
"`  c #E3322A",
"'  c #E73028",
"]  c #E0312E",
"[  c #E5322D",
"{  c #E6332E",
"}  c #E2372F",
"|  c #E5342E",
" . c #E4322C",
".. c #E93129",
"X. c #EA332B",
"o. c #EB322D",
"O. c #E9332F",
"+. c #E9322A",
"@. c #E0382F",
"#. c #E62F33",
"$. c #E62F34",
"%. c #E02D31",
"&. c #EB2F30",
"*. c #EA2D31",
"=. c #E43033",
"-. c #E23730",
";. c #E33034",
":. c #E33232",
">. c #EC3233",
",. c #EB3331",
"<. c #E43836",
"1. c #E93830",
"2. c #E03138",
"3. c #98443A",
"4. c #A44436",
"5. c #A3443E",
"6. c #AD443D",
"7. c #AB4B3D",
"8. c #B3423A",
"9. c #B0433E",
"0. c #B5433C",
"q. c #BE413B",
"w. c #BD403C",
"e. c #BA453E",
"r. c #BF443D",
"t. c #BE423D",
"y. c #B5493D",
"u. c #B2483A",
"i. c #C04037",
"p. c #C4423C",
"a. c #CD413D",
"s. c #D8403F",
"d. c #B73E43",
"f. c #BC3F43",
"g. c #BB3B41",
"h. c #C33E43",
"j. c #CE3B43",
"k. c #9E4644",
"l. c #9E4A40",
"z. c #9D4E4A",
"x. c #9F514D",
"c. c #A74443",
"v. c #AA4440",
"b. c #AF4643",
"n. c #A84C41",
"m. c #AD4A44",
"M. c #A14548",
"N. c #AE4748",
"B. c #A94648",
"V. c #A14948",
"C. c #A34B4D",
"Z. c #AF484C",
"A. c #B34244",
"S. c #B44347",
"D. c #B14544",
"F. c #B94243",
"G. c #BC4144",
"H. c #BA4345",
"J. c #B24A44",
"K. c #B0494A",
"L. c #B74948",
"P. c #B0494C",
"I. c #B6494E",
"U. c #B5494A",
"Y. c #C74140",
"T. c #C24341",
"R. c #C14349",
"E. c #C44848",
"W. c #848484",
/* pixels */
"                                                                                                                                ",
"                                                                                                                                ",
"                                                                                                                                ",
"                                                                                                                                ",
"                                                                                                                                ",
"                                                                                                                                ",
"                                  o                                                                                             ",
"                                                                                                                                ",
"                                                      o   O         o       o                                                   ",
"                                                        o     o o             o o                                               ",
"                                                  o   o                 o   O o o                                               ",
"                                                  o                         o                                                   ",
"                                                          X         X         o                                                 ",
"                                                    . . . # # # # # # . . .                                                     ",
"                                                . . # & * * - = = - * & & # # .                                                 ",
"                                              . $ * = V.N.A.F.G.f.d.S.P.k.= * $ .                                               ",
"                                          X   $ ; q.D L m m J J K K J T c S F.; & # . .   o   o                                 ",
"                                o         . & 6 G m k R E 1.P b K m ] { E _ K G n.* # . .   +                                   ",
"                                      X . $ v.S m | ' +./ m w.9.8.G L M W +.o.K F L.& . .     o                                 ",
"                                  o     # = H z { p -.m D r - = = ; , G D m _ ! $.F w $ .                                       ",
"                                    o . & K.F ;.W } D e * $ # . # . $ & - y.m o.*.U i = .                                       ",
"                                      # ; Y.U #.o.m e * .     o         # ; v W ! :.I I.$     .                                 ",
"                                      & e.m Q ~ R Y = . .         o o o . & r.B W ,.C i &                                       ",
"                                      & G X.W +.E D $     .         o o   # , D B z ;.h.& .   o                                 ",
"                                      & D E ! E E D $   . .       .       . = u.S Y H D.$                                       ",
"                                      & y <.{ ! +.D = # . .     X         . $ 4 3 8 3 5 #                                       ",
"                                      $ K.Z K ! E N 0 = $           o o o   . # $ $ # .                                         ",
"                                  o o # = R.U >.! M L 0.= $ $ . . O     %               o                                       ",
"                                      . & M.A ~ E E _ P Z 9 - * $ # .     o                                                     ",
"                                      . # * E.J W +.g +.o.K Y.c.q * & & $ # . o                                                 ",
"                                  o     . & = D.J | M s ' M l T D v Z G.- * $ # .                                               ",
"                                        . . # * D.S D N M W o.R E ' ! 2.G 6.C.* $ .                                             ",
"                                          O . . $ * 5.p.L z / ) ' o.! { z P c G , & #     o                                     ",
"                                      o o         . * - t p.S c J m M z ,.,.f M S m.* # . X                                     ",
"                                          o o     o . # & & * : b.T.a.P a E ~ ! :.L S.= #                                       ",
"                                  X       O           +     . # * - ; H.Y m ] ! ^ :.Z 2 $     o                                 ",
"                                              X         o o o   . $ # & = L.A { 1.Q C g.$ @                                     ",
"                                o   # . . # # # .       o               # * w.m j W ! j.* . O                                   ",
"                                  . $ ; : : > : - & .                   . $ ; i.M +.! A 3.& .                                   ",
"                                  . & z.H.G G T.Z.* #               o     # = 0.n E ! A 7.& #                                   ",
"                                O . $ x.H K K A u ; #   o                 # = 0.B g ! A 4.* .                                   ",
"                                o O # - Z ! 1.K F 2 & .                 . $ - i.M +.>.F l.$ .                                   ",
"                                o   X & H { s M %.H = #   o o           # * T.m k ! ! j.* .                                     ",
"                                  o   $ 9.c } ! ^ V J.* & $ # # . # # & = D.Y ] { :.2.i &     o                                 ",
"                                o     . * J.P *.R ] b S w.1 = = = = - t a.P j Q ,.h F < $ X                                     ",
"                                        # * g.I <._ k | } J w.6.0.r.p.J p E ~ :.z Y D.= #   +                                   ",
"                                      O . $ = B.F j +.d E { l P J m m } { ! ! M S m.& # .                                       ",
"                                        O . # * c.p.b B M K U V U K J m J s.x i.> & . X                                         ",
"                                              . $ * > c.D.H.u R.R.g.H.L.B.V.; * $ #                                             ",
"                                                . . # & * = - - ; ; = * & & # . .                                               ",
"                                                      . . . # # # $ # . .   . X                                                 ",
"                                                        X                                                                       ",
"                                                                              o                                                 ",
"                                                o O o                 o                                                         ",
"                                                o       o         o         o                                                   ",
"                                                            o       o         o                                                 ",
"                                                                                                                                ",
"                                                                                                                      o         ",
"                                                                                                                        o       ",
"                                                                                                                  o     W.  o   ",
"                                                                                                                o   o W.7 7 o   ",
"                                                                                                                    o   W.o   X ",
"                                                                                                                o       o       ",
"                                                                            o                                                 o "
};
