/* XPM */
static char *e7919d09642e44f9a2499ba54cb2e8ddXx144PLeuqn6pToH[] = {
/* columns rows colors chars-per-pixel */
"64 64 182 2 ",
"   c #010101",
".  c #090302",
"X  c #050905",
"o  c #03010B",
"O  c #0A030B",
"+  c #0B0909",
"@  c #040013",
"#  c #090114",
"$  c #04001B",
"%  c #09001C",
"&  c #060023",
"*  c #0A0023",
"=  c #06002B",
"-  c #0B002B",
";  c #100025",
":  c #070034",
">  c #0C0033",
",  c #07003A",
"<  c #0B003B",
"1  c #120036",
"2  c #11003C",
"3  c #0C0043",
"4  c #0D004A",
"5  c #130043",
"6  c #13004C",
"7  c #0E0050",
"8  c #0E0059",
"9  c #130053",
"0  c #13005C",
"q  c #1F005C",
"w  c #20005E",
"e  c #2B0F59",
"r  c #120065",
"t  c #180067",
"y  c #17006B",
"u  c #1A0079",
"i  c #311667",
"p  c #402874",
"a  c #492877",
"s  c #462E78",
"d  c #4E3576",
"f  c #7C7C7C",
"g  c #441E85",
"h  c #431F89",
"j  c #4F3783",
"k  c #4F2C93",
"l  c #5B3E92",
"z  c #4616A0",
"x  c #5E2DBA",
"c  c #5C4782",
"v  c #68568A",
"b  c #684997",
"n  c #6B4B9E",
"m  c #6F569C",
"M  c #776599",
"N  c #6A45AF",
"B  c #6D4BAD",
"V  c #714FA5",
"C  c #714CAC",
"Z  c #6F53A0",
"A  c #6E50AD",
"S  c #735CA5",
"D  c #7354AC",
"F  c #7A56AE",
"G  c #7659AB",
"H  c #7A5BAB",
"J  c #6E44B4",
"K  c #6D49B3",
"L  c #6E46BB",
"P  c #6F4BBA",
"I  c #744DB7",
"U  c #734DB4",
"Y  c #7246BF",
"T  c #734DBA",
"R  c #744DBD",
"E  c #7151B2",
"W  c #7455B3",
"Q  c #7656B7",
"!  c #7453B3",
"~  c #7955B4",
"^  c #7E5DB4",
"/  c #7150B9",
"(  c #7653BB",
")  c #7553BC",
"_  c #7852BF",
"`  c #7955BB",
"'  c #7C5ABD",
"]  c #7661A6",
"[  c #6D3AD3",
"{  c #733CD6",
"}  c #793DD1",
"|  c #7735DF",
" . c #753CD9",
".. c #7B3EDC",
"X. c #7639E3",
"o. c #7B3DE3",
"O. c #7636EC",
"+. c #7B36ED",
"@. c #763CEB",
"#. c #7C3BEF",
"$. c #7D3CEC",
"%. c #7E36F1",
"&. c #773CF0",
"*. c #7B3BF3",
"=. c #7A3AF0",
"-. c #7F3FF7",
";. c #7D3CF3",
":. c #7E3BF9",
">. c #6F4CC1",
",. c #774FC1",
"<. c #754CC4",
"1. c #794DC4",
"2. c #7445CC",
"3. c #7946CF",
"4. c #7945CD",
"5. c #774EC8",
"6. c #754ACA",
"7. c #784ECA",
"8. c #7E4BCC",
"9. c #7B4BCC",
"0. c #7654C5",
"q. c #7552C2",
"w. c #7A52C4",
"e. c #7D59C1",
"r. c #7B52CB",
"t. c #7746D3",
"y. c #7544D3",
"u. c #7946D3",
"i. c #7A44D5",
"p. c #7748D2",
"a. c #7B48D3",
"s. c #7B4BD3",
"d. c #7642D9",
"f. c #7940DB",
"g. c #7B43DF",
"h. c #7C47DD",
"j. c #7B43DC",
"k. c #7C4ADA",
"l. c #7F51D7",
"z. c #7744E5",
"x. c #7E41E2",
"c. c #7A44E1",
"v. c #7B43E5",
"b. c #7E46E6",
"n. c #7C43E4",
"m. c #7C48E3",
"M. c #7C42EB",
"N. c #7E42F3",
"B. c #7E41FC",
"V. c #805DBB",
"C. c #813CEE",
"Z. c #823EF3",
"A. c #823BF7",
"S. c #813DF5",
"D. c #843EF6",
"F. c #823DF4",
"G. c #893FF4",
"H. c #823FF8",
"J. c #833DFA",
"K. c #883DFC",
"L. c #804FCF",
"P. c #865FC9",
"I. c #814DD5",
"U. c #8045DB",
"Y. c #814BDB",
"T. c #8053D4",
"R. c #8046E6",
"E. c #8145E4",
"W. c #844DE6",
"Q. c #8043E8",
"!. c #8243ED",
"~. c #8248E8",
"^. c #8349EA",
"/. c #8849EF",
"(. c #8442F4",
"). c #8A40F7",
"_. c #8149F4",
"`. c #8542FA",
"'. c #8843F8",
"]. c #8943FA",
"[. c #8D4CFF",
"{. c #838383",
/* pixels */
"                                                                                                                                ",
"                                                                                                                                ",
"                                                                                                                                ",
"                                                                                                                                ",
"                                                                                                                                ",
"                                                                                                                                ",
"                                                                                                                                ",
"                                                                                                                                ",
"                              o   o o                     X       o                                       X                     ",
"                            o     o   o       X   X X           o         X X             o                 X X                 ",
"                                .         X                                   X X   o         X   o     X                       ",
"                  X                                       . .   .                   X                         .                 ",
"                    .   . .   .                         O . . . . . . .     X               .   .   . .     .                   ",
"                O     O o o o o                       o o @ # @ @ # o o o                       o o o o o     O                 ",
"            o o @ * & & = : < = & @ # o X           o @ & = : : : : = & @ o               # @ $ = < : = = & * @ o o             ",
"            o @ $ v H E ` T w.E S & @ @             o $ S W / q.0.P Q S $ o o           o @ & ] Q P ` ( E G M $ @ o             ",
"              o @ 2 7.c.b.c.n.k.I < @   X   . .     o & ,.h.g.v.v.b.f.1.&   o   . .       o 2 I u.~.c.R.c.5.c #                 ",
"                o > t.*.`.D.S.n.8.3 $       . .     o = 3.#.S.H.;.*.].a.: @ o o . .       o 5 9.Q.(.A.S.*.k.> o                 ",
"                  = 6.(.(.S.+.o.a.` $   +   . . X   @ 2 i.`.;.S.F.(.#.Y.D = o   . .     X @ 3 a.n.;.D.F.(.T.&                   ",
"                  & w.g.$.S.S.(.f.,.& o     . .   o & D h.F.D.D.(.;.$.f./ : @ X . .       $ P.h.!.;.D.'. .Y &                   ",
"                . @ 4 Y.o.+.;.+.!.6.> o   X .   X @ = ! c.S.%.S.:.J.F.f.w.: @   .       X & 5.!.;.].F.o.Y.w %                   ",
"                  # 2 1.n.;.`.;.+.k.: @     .     @ 3 <.n.S.].;.J.:.$.R.6.6 %       o o o > 2.F.S.S.F.o.7.5 @ .                 ",
"                  O - ! g.;.;.;.`.h.i & o     O   * 4 t.!.%.F.F.(.].C.o.b.5.&   X       @ : Y.F.S.S.;.f.` = #                   ",
"                  O % b y.N.H.H.;.g.W & @         $ _ g.C.D.F.F.C.$.$.(.O.k.&     +   o $ p i.Z.A.`.*.h.V * o .                 ",
"                  o o > t.N.S.A.D.c.T : o   o     - <.M.$.(.C.$.(.;.$.$.;.I.&         @ = E U.C.S.`.@.k.> @ O                   ",
"                    o = 6.M.;.D.F...w.< @     o # = s.$.#.(.X.^.M.@.M.(.F.a.> o       @ : ( j.C.A.;.M.6.= o o o                 ",
"                      % _ c.!.F.C.R.s.4 @     o % 2 i.(.C.!.h.x z i.n.F.`...~ & o     @ 2 R ..G.F.(.^.P %   o o                 ",
"                      @ 9 2.Q.(.Z.o.h.K *     @ - D f.F.(.o.2.0 8 6.b.F.;.o.q.: @     % 3 8.!.C.].$.y.' % .   o                 ",
"                  o   @ < w...F.+.(.b.1.&   X @ : R g.(.#.R.w.4 4 R ..;.A./.J < @     & w.n.o.(.+./.5.3 $   o                   ",
"                      @ = I E.D.D.S.$.6.-     @ 3 s.!.F.S.g.U < : W n.D.`.o.8.6 @ X   & 2.N.(.#.D.o.w.: @ o                     ",
"                  X o @ & F } F.J.A.-.k.-     @ 0 h.| C.;.g.G = & j f.`.+.C.b.R $     - s.;.S.S.A.g.C = @ o                     ",
"                      o @ > Y.F.H.J.H.d.m #   $ w.v.(.C.;.k.< @ @ > y.S.F.(.@.6.&   o = k.H.:.H.H.h.a % @                       ",
"                          - 9.M.+.`.S.f.W & @ & s.$.(.;.N.2.&     & t.;.S.S.*.k.& o % l f.A.-.B.;.i.- O                         ",
"        .               . & <.z.(.#.F.R.K < % > Y.;.S.N.@.5.&     & r.M.(.;.`.y.1 % : K ^.H.*.B.N.9.& .     X                   ",
"        .         X     . % N d.M.$.A.Q.5.3 = 2 i.#.`.M.m.w.$     $ k h.!.S.F.i.n > < q.o.`.`.@.v.Y ; .     X                   ",
"                        + % 3 s.Q.;.A.(.2.h < ^ i.[.+.$.p.4 $     @ 6 2.$.D.#.h.' 3 4 8.n.;.$.M.d.9 % .   X                     ",
"                  X     . # > ,.o.`.D.$.n.l.3 U n.O.F.c.r.3 %     o : T Q.A.H.v.,.7 t k.o.(.S.n.r.< # .       X                 ",
"                    X     o & ~ g.S.F.F.`.{ 0 q.v.`.(.i.! : @ o   o & F E.:.`.M.3.y Y.c.!.(.$.h.B 1 @ .                         ",
"                          o % 2 Y.;.$.F.%.(.r 6.M.;.$.a.G & @ o   o o d f.A.F.!.c.[ o.$.#.S.C.Y.H $ o X       X                 ",
"                    o o   o o - 3.!.(.S.J.S.u k.M.S.Z.3.2 @ o o o o   = i.S.C.$.M.M.$.S.;.S.(.4.> @                             ",
"                              & Y !.;.%.K.D.o.b.$.(.F.u.= o   o       & t.`.F.F.$.M.!.(.;.;.(.4.=                               ",
"                              @ e.n.F.D.%.D.(.N.(.$.$.8.$             $ 7.@.F.(.(.$.(.F.;.*.X.8.&                               ",
"                              o 6 2.!.A.D.D.*.;.$.M.b.,.%             @ k h.$.S.$.(.;.H.-.$.W.g $                               ",
"                              o : r.n.S.D.;.(.;.`.X.k.q @             @ 6 9.Q.F.(.#.;.;.;.M.6.3 @                               ",
"                                & B  .F.`.F.(.#.*.n.1.2 #       .     @ , L !.F.#.(.M.X.`.b.R > @                               ",
"                                $ s Y.F.;.F.#.(.`.~.J > #             o = e.c.D.D.F.M._.&.d.D & o                               ",
"                                o = 2.].#.;.F.S.;.g.V.& # O           o $ l j.D.).(.$.@.N.d.5 @ o                               ",
"                                  & 1.d.g.n.n.n.g.5.e % o             o @ : L.o...E.z.m.d.w.= o                                 ",
"                                  % m A _ >.<.R ! m - #                 @ & Z ( R <.>.q.A m % o                                 ",
"                                  o & = : , < : = & o                     o & = : < , : = * o                                   ",
"                                  O o @ @ $ % @ O   +                   . +   O # % % $ @ o O                                   ",
"                                  .             .           X     o         .   .     o   . .                                   ",
"                                    X         .   X   o         o o     o   X   .                                               ",
"                                                              o o                                                               ",
"                                  X           .   o o               X     o                                                     ",
"                                                      o                 o                                                       ",
"                                                                                                                                ",
"                                                                                                                      +         ",
"                                                                                                                                ",
"                                                            o o o                                                 X     {.  X   ",
"                                                                                                                    X {.f {.    ",
"                                                                                                                    X   {.    X ",
"                                                                                                                X               ",
"                                                                                                                          X X   "
};
